svgs/duotone/drum-steelpan.svg

<svg xmlns="http://www.w3.org/2000/svg" viewBox="0 0 576 512"><!-- Font Awesome Pro 6.0.0-alpha2 by @fontawesome - https://fontawesome.com License - https://fontawesome.com/license (Commercial License) --><defs><style>.fa-secondary{opacity:.4}</style></defs><path d="M172 90C98.125 103.625 48 129.875 48 160C48 190.75 100.25 217.5 176.75 230.875C190.5 220.875 200.5 207 205 190.375C210.125 171.25 207.5 151.375 197.625 134.25L172 90ZM288 192C259.25 192 235.125 211.125 227.125 237.25C246.625 239 266.875 240 288 240S329.375 239 348.875 237.25C340.875 211.125 316.75 192 288 192ZM224 83V96C224 131.25 252.75 160 288 160S352 131.25 352 96V83C331.625 81.125 310.25 80 288 80S244.375 81.125 224 83ZM403.5 89.875L377.875 134.375C368 151.375 365.375 171.25 370.5 190.375C375 207 385.125 221 398.875 230.875C475.625 217.5 528 190.875 528 160C528 129.75 477.75 103.5 403.5 89.875Z" class="fa-secondary"/><path d="M288 32C129 32 0 89.25 0 160V352C0 422.75 129 480 288 480S576 422.75 576 352V160C576 89.25 447 32 288 32ZM205 190.375C200.5 207 190.5 220.875 176.75 230.875C100.25 217.5 48 190.75 48 160C48 129.875 98.125 103.625 172 90L197.625 134.25C207.5 151.375 210.125 171.25 205 190.375ZM288 240C266.875 240 246.625 239 227.125 237.25C235.125 211.125 259.25 192 288 192S340.875 211.125 348.875 237.25C329.375 239 309.125 240 288 240ZM352 96C352 131.25 323.25 160 288 160S224 131.25 224 96V83C244.375 81.125 265.75 80 288 80S331.625 81.125 352 83V96ZM398.875 230.875C385.125 221 375 207 370.5 190.375C365.375 171.25 368 151.375 377.875 134.375L403.5 89.875C477.75 103.5 528 129.75 528 160C528 190.875 475.625 217.5 398.875 230.875Z" class="fa-primary"/></svg>

<svg xmlns="http://www.w3.org/2000/svg" viewBox="0 0 576 512"><!--! Font Awesome Pro 6.3.0 by @fontawesome - https://fontawesome.com License - https://fontawesome.com/license (Commercial License) Copyright 2023 Fonticons, Inc. --><defs><style>.fa-secondary{opacity:.4}</style></defs><path class="fa-primary" d="M288 32C129 32 0 89.25 0 160v192c0 70.75 129 128 288 128s288-57.25 288-128V160C576 89.25 447 32 288 32zM205 190.4C200.5 207 190.5 220.9 176.8 230.9C100.3 217.5 48 190.8 48 160c0-30.12 50.13-56.38 124-69.1l25.62 44.25C207.5 151.4 210.1 171.3 205 190.4zM288 240c-21.12 0-41.38-1-60.88-2.75C235.1 211.1 259.3 192 288 192s52.88 19.12 60.88 45.25C329.4 239 309.1 240 288 240zM352 96c0 35.25-28.75 64-64 64S224 131.3 224 96V83C244.4 81.13 265.8 80 288 80s43.63 1.125 64 3V96zM398.9 230.9C385.1 221 375 207 370.5 190.4c-5.125-19.12-2.5-39 7.375-56l25.62-44.5C477.8 103.5 528 129.8 528 160C528 190.9 475.6 217.5 398.9 230.9z"/><path class="fa-secondary" d="M172 90C98.13 103.6 48 129.9 48 160c0 30.75 52.25 57.5 128.8 70.88C190.5 220.9 200.5 207 205 190.4c5.125-19.12 2.5-39-7.375-56.13L172 90zM288 192C259.3 192 235.1 211.1 227.1 237.3C246.6 239 266.9 240 288 240s41.38-1 60.88-2.75C340.9 211.1 316.8 192 288 192zM224 83V96c0 35.25 28.75 64 64 64s64-28.75 64-64V83C331.6 81.13 310.3 80 288 80S244.4 81.13 224 83zM403.5 89.88l-25.62 44.5c-9.875 17-12.5 36.88-7.375 56C375 207 385.1 221 398.9 230.9C475.6 217.5 528 190.9 528 160C528 129.8 477.8 103.5 403.5 89.88z"/></svg>
